packages/sources/assets/src/assets/elo.svg

<svg width="58" height="40" viewBox="0 0 58 40" fill="none" xmlns="http://www.w3.org/2000/svg">
<rect x="0.5" y="0.5" width="57" height="39" rx="3.5" fill="white" stroke="#F3F3F3"/>
<path d="M12.207 15.0056C12.7492 14.828 13.3292 14.7316 13.9327 14.7316C16.5666 14.7316 18.7636 16.5648 19.2676 19L23 18.2543C22.1436 14.1155 18.4099 11 13.9327 11C12.9077 11 11.921 11.1636 11 11.465L12.207 15.0056Z" fill="#FFF200"/>
<path d="M7.76523 27L10 24.1179C9.00246 23.1101 8.37286 21.6388 8.37286 19.9988C8.37286 18.3601 9.00187 16.8888 9.99912 15.8818L7.76318 13C6.06816 14.7122 5 17.2132 5 19.9988C5 22.7859 6.06972 25.2878 7.76523 27Z" fill="#00A4E0"/>
<path d="M19.2688 21C18.7631 23.4348 16.5674 25.2657 13.9359 25.2657C13.3321 25.2657 12.751 25.169 12.2087 24.9909L11 28.5333C11.9225 28.8362 12.9094 29 13.9359 29C18.409 29 22.1402 25.8866 23 21.7494L19.2688 21Z" fill="#EF4123"/>
<path fill-rule="evenodd" clip-rule="evenodd" d="M40.9576 13V23.2425L42.7978 23.9792L41.9272 25.9994L40.1074 25.2688C39.6982 25.0974 39.4213 24.8363 39.2109 24.5414C39.0089 24.2396 38.8591 23.8272 38.8591 23.2707V13H40.9576ZM27.0007 20.6125C27.0464 17.6835 29.5438 15.3454 32.5742 15.3902C35.1462 15.4292 37.2773 17.1692 37.837 19.4835L27.8893 23.59C27.3114 22.7367 26.983 21.7103 27.0007 20.6125ZM29.2768 21.0232C29.2632 20.9003 29.2535 20.7743 29.2572 20.6471C29.2857 18.9214 30.756 17.5444 32.5414 17.573C33.5133 17.5855 34.3762 18.0154 34.9595 18.6806L29.2768 21.0232ZM34.7501 22.9248C34.1505 23.488 33.3375 23.8312 32.4398 23.8189C31.8245 23.809 31.2544 23.631 30.7696 23.3346L29.5679 25.184C30.3909 25.6865 31.3613 25.9838 32.4075 25.9994C33.9304 26.0213 35.3184 25.4435 36.3277 24.4894L34.7501 22.9248ZM48.6164 17.573C48.258 17.573 47.9135 17.6289 47.5916 17.7333L46.8755 15.6608C47.4221 15.4846 48.0073 15.3888 48.6164 15.3888C51.2743 15.3888 53.4916 17.2124 54 19.6347L51.7834 20.0711C51.4847 18.6455 50.1803 17.573 48.6164 17.573ZM44.977 24.6683L46.4748 23.0325C45.8059 22.4605 45.3846 21.6251 45.3846 20.6939C45.3846 19.7637 45.8059 18.9288 46.4742 18.3572L44.9753 16.7213C43.839 17.6933 43.1231 19.1135 43.1231 20.6939C43.1231 22.2763 43.8396 23.696 44.977 24.6683ZM48.6164 23.8161C50.1788 23.8161 51.483 22.7444 51.7834 21.3209L53.9994 21.7592C53.4885 24.1789 51.2719 26 48.6164 26C48.0068 26 47.4208 25.9039 46.8728 25.7268L47.5906 23.6551C47.913 23.7592 48.2577 23.8161 48.6164 23.8161Z" fill="black"/>
</svg>

<svg width="58" height="40" fill="none" xmlns="http://www.w3.org/2000/svg"><rect x=".5" y=".5" width="57" height="39" rx="3.5" fill="#fff" stroke="#F3F3F3"/><path d="M12.207 15.006a5.534 5.534 0 0 1 1.726-.274c2.634 0 4.83 1.833 5.335 4.268L23 18.254C22.144 14.115 18.41 11 13.933 11a9.418 9.418 0 0 0-2.933.465l1.207 3.54Z" fill="#FFF200"/><path d="M7.765 27 10 24.118c-.998-1.008-1.627-2.48-1.627-4.12 0-1.638.629-3.11 1.626-4.116L7.763 13C6.068 14.712 5 17.213 5 19.999 5 22.786 6.07 25.288 7.765 27" fill="#00A4E0"/><path d="M19.269 21c-.506 2.435-2.702 4.266-5.333 4.266a5.529 5.529 0 0 1-1.727-.275L11 28.533c.922.303 1.91.467 2.936.467 4.473 0 8.204-3.113 9.064-7.25L19.269 21Z" fill="#EF4123"/><path fill-rule="evenodd" clip-rule="evenodd" d="M40.958 13v10.242l1.84.737-.87 2.02-1.82-.73a2.046 2.046 0 0 1-.897-.728c-.202-.301-.352-.714-.352-1.27V13h2.099ZM27 20.613c.045-2.93 2.543-5.268 5.573-5.223 2.572.04 4.703 1.78 5.263 4.093l-9.948 4.107A5.143 5.143 0 0 1 27 20.613Zm2.276.41a2.705 2.705 0 0 1-.02-.376c.029-1.726 1.499-3.103 3.284-3.074a3.262 3.262 0 0 1 2.419 1.108l-5.683 2.342Zm5.473 1.902a3.294 3.294 0 0 1-3.98.41l-1.202 1.849a5.59 5.59 0 0 0 2.84.815 5.573 5.573 0 0 0 3.92-1.51l-1.578-1.564Zm13.866-5.352a3.32 3.32 0 0 0-1.024.16l-.716-2.072a5.666 5.666 0 0 1 1.74-.272c2.658 0 4.876 1.823 5.384 4.246l-2.217.436c-.298-1.426-1.603-2.498-3.167-2.498Zm-3.639 7.095 1.498-1.636a3.07 3.07 0 0 1-1.09-2.338c0-.93.42-1.765 1.09-2.337l-1.5-1.636c-1.136.972-1.852 2.392-1.852 3.973 0 1.582.717 3.002 1.854 3.974Zm3.64-.852c1.562 0 2.866-1.072 3.166-2.495l2.216.438C53.49 24.18 51.272 26 48.616 26a5.66 5.66 0 0 1-1.743-.273l.718-2.072c.322.104.667.161 1.025.161Z" fill="#000"/></svg>
